jsapp/svg-icons/qt-decimal-lock.svg

<svg height="642" viewBox="0 0 642 642" width="642" xmlns="http://www.w3.org/2000/svg"><path d="m517.18 441.11v.18h-.37v-.2c.03482-.059721.078672-.113693.13-.16h.06c.079919.036077.143923.100081.18.18zm-79.18-154.58c0-22.34 2.286667-38.653333 6.86-48.94s11.11-15.11 19.61-14.47h1.14c8.38-.666667 14.916667 4.156667 19.61 14.47s7.026667 26.626667 7 48.94v32.21c17.884016-3.613068 36.341784-3.271763 54.08 1v-28.45c0-36.813333-7.363333-64.836667-22.09-84.07s-34.466667-28.85-59.22-28.85-44.463333 9.616667-59.13 28.85-22 47.256667-22 84.07v59.6c0 25.926667 3.63 47.453333 10.89 64.58 5.906393-27.886332 21.166469-52.916385 43.25-70.94zm-149.09 173.1h53.51v-49.13h-53.51zm-193.28-219.56 51.37-1.15v220.71h54.08v-277.45l-105.45 18.82zm546.37 375.14c0 14.795708-11.994292 26.79-26.79 26.79h-196.42c-14.795708 0-26.79-11.994292-26.79-26.79v-107.14c0-14.795708 11.994292-26.79 26.79-26.79h13.39v-40.17c0-46.844792 37.975208-84.82 84.82-84.82s84.82 37.975208 84.82 84.82v40.18h13.39c14.791804 0 26.784479 11.988197 26.79 26.78zm-97.91-55.14c0-14.746003-11.953997-26.7-26.7-26.7s-26.7 11.953997-26.7 26.7 11.953997 26.7 26.7 26.7c14.730396 0 26.677932-11.929621 26.7-26.66zm13.09-119c0-22.190801-17.989199-40.18-40.18-40.18s-40.18 17.989199-40.18 40.18v40.18h80.36z"/></svg>

<svg id="Layer_1" data-name="Layer 1" xmlns="http://www.w3.org/2000/svg" viewBox="0 0 642 642"><path d="M517.18,441.11v.18h-.37v-.2a.67.67,0,0,1,.13-.16H517A.36.36,0,0,1,517.18,441.11ZM438,344.53v-58q0-33.51,6.86-48.94t19.61-14.47h1.14q12.57-1,19.61,14.47t7,48.94v32.21a125.14,125.14,0,0,1,54.08,1V291.29q0-55.22-22.09-84.07t-59.22-28.85q-37.13,0-59.13,28.85t-22,84.07v59.6q0,38.89,10.89,64.58A125,125,0,0,1,438,344.53ZM288.91,459.63h53.51V410.5H288.91ZM95.63,240.07,147,238.92V459.63h54.08V182.18L95.63,201ZM642,508.07V615.21A26.79,26.79,0,0,1,615.21,642H418.79A26.79,26.79,0,0,1,392,615.21V508.07a26.79,26.79,0,0,1,26.79-26.79h13.39V441.11a84.82,84.82,0,0,1,169.64,0v40.18h13.39A26.79,26.79,0,0,1,642,508.07Zm-97.91,52a26.7,26.7,0,1,0-26.7,26.7A26.7,26.7,0,0,0,544.09,560.11Zm13.09-119a40.18,40.18,0,1,0-80.36,0v40.18h80.36Z"/></svg>
